logos/dotjs.svg

<svg viewBox="2 2 25 29" xmlns="http://www.w3.org/2000/svg" xmlns:xlink="http://www.w3.org/1999/xlink">
 <path d="m23.043 4.649l-.404-2.312-1.59 1.727-2.323-.330 1.151 2.045-1.032 2.108 2.302-.463 1.686 1.633.271-2.332 2.074-1.099-2.135-.977z"/>
 <path d="m26.217 18.198l-.182-1.25-.882.905-1.245-.214.588 1.118-.588 1.118 1.245-.214.882.905.182-1.25 1.133-.560-1.133-.558z"/>
 <path d="m4.92 7.672l.948-.372.844.569-.062-1.016.802-.627-.985-.256-.349-.957-.547.859-1.018.036.647.786-.280.978z"/>
 <path d="m10.439 10.505l1.021-1.096 1.481.219-.727-1.31.667-1.341-1.47.287-1.069-1.048-.182 1.487-1.328.693 1.358.632.249 1.477z"/>
 <path d="m17.234 12.721c-.588-.368-1.172-.618-1.692-.729-.492-.089-1.039-.149-1.425.374l-11.555 18.422h6.68l9.669-15.416c.303-.576.012-1.041-.283-1.447-.325-.417-.806-.835-1.394-1.204zm-3.621 9.215c-.254-.396-.740-.857-1.373-1.254-.632-.396-1.258-.634-1.726-.690l4.421-7.052c.064-.013.262-.021.543.066.346.092.785.285 1.225.562.504.313.908.677 1.133.970.113.145.178.271.195.335.002.006.004.011.004.015l-4.422 7.048z"/>
</svg>

<svg viewBox="2 2 25 29" xmlns="http://www.w3.org/2000/svg" xmlns:xlink="http://www.w3.org/1999/xlink">
 <path d="M23.043,4.649l-0.404-2.312l-1.59,1.727l-2.323-0.33l1.151,2.045l-1.032,2.108l2.302-0.463l1.686,1.633l0.271-2.332l2.074-1.099L23.043,4.649zM26.217,18.198l-0.182-1.25l-0.882,0.905l-1.245-0.214l0.588,1.118l-0.588,1.118l1.245-0.214l0.882,0.905l0.182-1.25l1.133-0.56L26.217,18.198zM4.92,7.672L5.868,7.3l0.844,0.569L6.65,6.853l0.802-0.627L6.467,5.97L6.118,5.013L5.571,5.872L4.553,5.908l0.647,0.786L4.92,7.672zM10.439,10.505l1.021-1.096l1.481,0.219l-0.727-1.31l0.667-1.341l-1.47,0.287l-1.069-1.048L10.16,7.703L8.832,8.396l1.358,0.632L10.439,10.505zM17.234,12.721c-0.588-0.368-1.172-0.618-1.692-0.729c-0.492-0.089-1.039-0.149-1.425,0.374L2.562,30.788h6.68l9.669-15.416c0.303-0.576,0.012-1.041-0.283-1.447C18.303,13.508,17.822,13.09,17.234,12.721zM13.613,21.936c-0.254-0.396-0.74-0.857-1.373-1.254c-0.632-0.396-1.258-0.634-1.726-0.69l4.421-7.052c0.064-0.013,0.262-0.021,0.543,0.066c0.346,0.092,0.785,0.285,1.225,0.562c0.504,0.313,0.908,0.677,1.133,0.97c0.113,0.145,0.178,0.271,0.195,0.335c0.002,0.006,0.004,0.011,0.004,0.015L13.613,21.936z"/>
</svg>
